svg/fluentui-system-icons/ic_fluent_weather_drizzle_48_filled.svg

<svg width="48" height="48" viewBox="0 0 48 48" fill="none" xmlns="http://www.w3.org/2000/svg">
<path d="M23.9989 6C30.336 6 33.9309 10.1946 34.4537 15.2603L34.6136 15.2602C38.6918 15.2602 41.9978 18.5577 41.9978 22.6253C41.9978 26.6929 38.6918 29.9904 34.6136 29.9904L32.8907 29.9912L32.8874 30H32.3013L30.3297 33.3798C29.9819 33.9761 29.2165 34.1776 28.6202 33.8297C28.0238 33.4819 27.8224 32.7165 28.1703 32.1201L29.4129 29.99L25.1543 29.9912L25.1506 30H24.3013L22.3297 33.3798C21.9819 33.9761 21.2165 34.1776 20.6202 33.8297C20.0238 33.4819 19.8224 32.7165 20.1703 32.1201L21.4128 29.9901L17.4179 29.9912L17.4145 30H16.3015L14.3299 33.3798C13.9821 33.9761 13.2167 34.1775 12.6204 33.8297C12.024 33.4818 11.8226 32.7164 12.1705 32.1201L13.4128 29.9903L13.3842 29.9904C9.306 29.9904 6 26.6929 6 22.6253C6 18.5577 9.306 15.2602 13.3842 15.2602L13.5441 15.2603C14.07 10.1613 17.6618 6 23.9989 6ZM17.6299 34.6703C18.2262 35.0181 18.4276 35.7835 18.0797 36.3798L16.3297 39.3798C15.9819 39.9762 15.2165 40.1776 14.6202 39.8297C14.0239 39.4819 13.8224 38.7165 14.1703 38.1202L15.9203 35.1202C16.2681 34.5238 17.0335 34.3224 17.6299 34.6703ZM26.0797 36.3798C26.4276 35.7835 26.2262 35.0181 25.6299 34.6703C25.0335 34.3224 24.2681 34.5238 23.9203 35.1202L22.1703 38.1202C21.8224 38.7165 22.0239 39.4819 22.6202 39.8297C23.2165 40.1776 23.9819 39.9762 24.3297 39.3798L26.0797 36.3798Z" fill="#212121"/>
</svg>

<svg xmlns="http://www.w3.org/2000/svg" width="48" height="48"><path d="M23.999 6c6.337 0 9.932 4.195 10.455 9.26h.16c4.078 0 7.384 3.298 7.384 7.365 0 4.068-3.306 7.365-7.384 7.365l-1.723.001-.004.009h-.586l-1.971 3.38a1.25 1.25 0 1 1-2.16-1.26l1.243-2.13-4.259.001-.003.009h-.85l-1.971 3.38a1.25 1.25 0 1 1-2.16-1.26l1.243-2.13-3.995.001-.003.009h-1.113l-1.972 3.38a1.25 1.25 0 1 1-2.16-1.26l1.243-2.13h-.029C9.306 29.99 6 26.693 6 22.625c0-4.067 3.306-7.365 7.384-7.365h.16C14.07 10.161 17.662 6 24 6Zm-6.37 28.67a1.25 1.25 0 0 1 .45 1.71l-1.75 3a1.25 1.25 0 1 1-2.159-1.26l1.75-3a1.25 1.25 0 0 1 1.71-.45Zm8.45 1.71a1.25 1.25 0 1 0-2.159-1.26l-1.75 3a1.25 1.25 0 1 0 2.16 1.26l1.75-3Z"/></svg>
